src/assets/icons/fa/indent.svg

<?xml version="1.0" encoding="utf-8"?>
<svg width="1792" height="1792" viewBox="0 0 1792 1792" xmlns="http://www.w3.org/2000/svg"><path d="M352 832q0 14-9 23l-288 288q-9 9-23 9-13 0-22.5-9.5t-9.5-22.5v-576q0-13 9.5-22.5t22.5-9.5q14 0 23 9l288 288q9 9 9 23zm1440 480v192q0 13-9.5 22.5t-22.5 9.5h-1728q-13 0-22.5-9.5t-9.5-22.5v-192q0-13 9.5-22.5t22.5-9.5h1728q13 0 22.5 9.5t9.5 22.5zm0-384v192q0 13-9.5 22.5t-22.5 9.5h-1088q-13 0-22.5-9.5t-9.5-22.5v-192q0-13 9.5-22.5t22.5-9.5h1088q13 0 22.5 9.5t9.5 22.5zm0-384v192q0 13-9.5 22.5t-22.5 9.5h-1088q-13 0-22.5-9.5t-9.5-22.5v-192q0-13 9.5-22.5t22.5-9.5h1088q13 0 22.5 9.5t9.5 22.5zm0-384v192q0 13-9.5 22.5t-22.5 9.5h-1728q-13 0-22.5-9.5t-9.5-22.5v-192q0-13 9.5-22.5t22.5-9.5h1728q13 0 22.5 9.5t9.5 22.5z"/></svg>

<svg width="1792" height="1792" xmlns="http://www.w3.org/2000/svg"><path d="M352 832q0 14-9 23L55 1143q-9 9-23 9-13 0-22.5-9.5T0 1120V544q0-13 9.5-22.5T32 512q14 0 23 9l288 288q9 9 9 23zm1440 480v192q0 13-9.5 22.5t-22.5 9.5H32q-13 0-22.5-9.5T0 1504v-192q0-13 9.5-22.5T32 1280h1728q13 0 22.5 9.5t9.5 22.5zm0-384v192q0 13-9.5 22.5t-22.5 9.5H672q-13 0-22.5-9.5T640 1120V928q0-13 9.5-22.5T672 896h1088q13 0 22.5 9.5t9.5 22.5zm0-384v192q0 13-9.5 22.5T1760 768H672q-13 0-22.5-9.5T640 736V544q0-13 9.5-22.5T672 512h1088q13 0 22.5 9.5t9.5 22.5zm0-384v192q0 13-9.5 22.5T1760 384H32q-13 0-22.5-9.5T0 352V160q0-13 9.5-22.5T32 128h1728q13 0 22.5 9.5t9.5 22.5z"/></svg>
